packages/assets/static/images/icons/slack-logo.svg

<svg width="24" height="24" viewBox="0 0 24 24" xmlns="http://www.w3.org/2000/svg">
<path d="M20.7309 12C21.2838 11.5068 21.6345 10.8264 21.7156 10.0899C21.7967 9.35349 21.6024 8.61308 21.1702 8.01134C20.7379 7.40959 20.0983 6.98908 19.3745 6.83081C18.6507 6.67253 17.8939 6.7877 17.25 7.15411V5.25004C17.2493 4.64097 17.0632 4.04653 16.7165 3.54575C16.3698 3.04498 15.8789 2.6616 15.3091 2.44658C14.7392 2.23156 14.1174 2.19509 13.5263 2.34201C12.9352 2.48894 12.4028 2.8123 12 3.26911C11.5067 2.71627 10.8263 2.36553 10.0899 2.28443C9.35343 2.20333 8.61302 2.39761 8.01128 2.82986C7.40953 3.2621 6.98902 3.90173 6.83075 4.62553C6.67247 5.34933 6.78763 6.10609 7.15405 6.75004H5.24998C4.64091 6.75073 4.04647 6.93679 3.54569 7.28349C3.04492 7.63019 2.66154 8.1211 2.44652 8.69096C2.2315 9.26082 2.19503 9.88263 2.34195 10.4737C2.48888 11.0648 2.81224 11.5972 3.26905 12C2.71621 12.4933 2.36546 13.1737 2.28436 13.9101C2.20326 14.6466 2.39755 15.387 2.8298 15.9888C3.26204 16.5905 3.90167 17.011 4.62547 17.1693C5.34927 17.3276 6.10603 17.2124 6.74998 16.846V18.75C6.75067 19.3591 6.93673 19.9536 7.28343 20.4543C7.63013 20.9551 8.12104 21.3385 8.6909 21.5535C9.26076 21.7685 9.88257 21.805 10.4737 21.6581C11.0648 21.5112 11.5971 21.1878 12 20.731C12.4932 21.2838 13.1736 21.6346 13.9101 21.7157C14.6465 21.7968 15.3869 21.6025 15.9887 21.1702C16.5904 20.738 17.0109 20.0984 17.1692 19.3746C17.3275 18.6508 17.2123 17.894 16.8459 17.25H18.75C19.3591 17.2494 19.9535 17.0633 20.4543 16.7166C20.955 16.3699 21.3384 15.879 21.5534 15.3091C21.7685 14.7393 21.8049 14.1175 21.658 13.5264C21.5111 12.9353 21.1877 12.4029 20.7309 12ZM6.74998 14.25C6.74998 14.5467 6.66201 14.8367 6.49719 15.0834C6.33237 15.3301 6.0981 15.5223 5.82401 15.6359C5.54992 15.7494 5.24832 15.7791 4.95735 15.7212C4.66638 15.6633 4.3991 15.5205 4.18932 15.3107C3.97954 15.1009 3.83668 14.8337 3.77881 14.5427C3.72093 14.2517 3.75063 13.9501 3.86416 13.676C3.9777 13.4019 4.16995 13.1677 4.41663 13.0028C4.6633 12.838 4.95331 12.75 5.24998 12.75H6.74998V14.25ZM11.25 18.75C11.25 19.1479 11.0919 19.5294 10.8106 19.8107C10.5293 20.092 10.1478 20.25 9.74998 20.25C9.35216 20.25 8.97063 20.092 8.68932 19.8107C8.40802 19.5294 8.24998 19.1479 8.24998 18.75V14.25C8.24998 13.8522 8.40802 13.4707 8.68932 13.1894C8.97063 12.9081 9.35216 12.75 9.74998 12.75H11.25V18.75ZM11.25 11.25H5.24998C4.85216 11.25 4.47063 11.092 4.18932 10.8107C3.90802 10.5294 3.74998 10.1479 3.74998 9.75004C3.74998 9.35222 3.90802 8.97069 4.18932 8.68938C4.47063 8.40808 4.85216 8.25004 5.24998 8.25004H9.74998C10.1478 8.25004 10.5293 8.40808 10.8106 8.68938C11.0919 8.97069 11.25 9.35222 11.25 9.75004V11.25ZM11.25 6.75004H9.74998C9.45331 6.75004 9.1633 6.66207 8.91663 6.49725C8.66995 6.33243 8.4777 6.09816 8.36416 5.82407C8.25063 5.54998 8.22093 5.24838 8.27881 4.95741C8.33668 4.66644 8.47955 4.39916 8.68932 4.18938C8.8991 3.97961 9.16638 3.83674 9.45735 3.77887C9.74832 3.72099 10.0499 3.75069 10.324 3.86423C10.5981 3.97776 10.8324 4.17002 10.9972 4.41669C11.162 4.66336 11.25 4.95337 11.25 5.25004V6.75004ZM12.75 5.25004C12.75 4.85222 12.908 4.47069 13.1893 4.18938C13.4706 3.90808 13.8522 3.75004 14.25 3.75004C14.6478 3.75004 15.0293 3.90808 15.3106 4.18938C15.5919 4.47069 15.75 4.85222 15.75 5.25004V9.75004C15.75 10.1479 15.5919 10.5294 15.3106 10.8107C15.0293 11.092 14.6478 11.25 14.25 11.25H12.75V5.25004ZM14.25 20.25C13.8522 20.25 13.4706 20.092 13.1893 19.8107C12.908 19.5294 12.75 19.1479 12.75 18.75V17.25H14.25C14.6478 17.25 15.0293 17.4081 15.3106 17.6894C15.5919 17.9707 15.75 18.3522 15.75 18.75C15.75 19.1479 15.5919 19.5294 15.3106 19.8107C15.0293 20.092 14.6478 20.25 14.25 20.25ZM18.75 15.75H14.25C13.8522 15.75 13.4706 15.592 13.1893 15.3107C12.908 15.0294 12.75 14.6479 12.75 14.25V12.75H18.75C19.1478 12.75 19.5293 12.9081 19.8106 13.1894C20.0919 13.4707 20.25 13.8522 20.25 14.25C20.25 14.6479 20.0919 15.0294 19.8106 15.3107C19.5293 15.592 19.1478 15.75 18.75 15.75ZM18.75 11.25H17.25V9.75004C17.25 9.45337 17.338 9.16336 17.5028 8.91669C17.6676 8.67002 17.9019 8.47776 18.176 8.36423C18.45 8.25069 18.7516 8.22099 19.0426 8.27887C19.3336 8.33674 19.6009 8.47961 19.8106 8.68938C20.0204 8.89916 20.1633 9.16644 20.2212 9.45741C20.279 9.74838 20.2493 10.05 20.1358 10.3241C20.0223 10.5982 19.83 10.8324 19.5833 10.9972C19.3367 11.1621 19.0467 11.25 18.75 11.25Z"/>
</svg>

<svg viewBox="0 0 24 24" xmlns="http://www.w3.org/2000/svg" aria-hidden="true" fill="currentColor"><path d="M20.73 12a3 3 0 0 0-3.48-4.846V5.25A3 3 0 0 0 12 3.27a3 3 0 0 0-4.846 3.48H5.25A3 3 0 0 0 3.269 12a3 3 0 0 0 3.481 4.846v1.904A3 3 0 0 0 12 20.731a3 3 0 0 0 4.846-3.481h1.904A3 3 0 0 0 20.73 12M6.75 14.25a1.5 1.5 0 1 1-1.5-1.5h1.5zm4.5 4.5a1.5 1.5 0 0 1-3 0v-4.5a1.5 1.5 0 0 1 1.5-1.5h1.5zm0-7.5h-6a1.5 1.5 0 1 1 0-3h4.5a1.5 1.5 0 0 1 1.5 1.5zm0-4.5h-1.5a1.5 1.5 0 1 1 1.5-1.5zm1.5-1.5a1.5 1.5 0 1 1 3 0v4.5a1.5 1.5 0 0 1-1.5 1.5h-1.5zm1.5 15a1.5 1.5 0 0 1-1.5-1.5v-1.5h1.5a1.5 1.5 0 0 1 0 3m4.5-4.5h-4.5a1.5 1.5 0 0 1-1.5-1.5v-1.5h6a1.5 1.5 0 0 1 0 3m0-4.5h-1.5v-1.5a1.5 1.5 0 1 1 1.5 1.5"/></svg>
